X:1
T:Faith Is the Victory
T:Ira David Sankey
T:Faith Is the Victory
T:Public Domain
T:Public Domain
T:Public Domain
C:Ira David Sankey
Z:Public Domain
%%score ( 1 2 ) ( 3 4 )
L:1/8
M:6/8
K:F
V:1 treble 
V:2 treble 
V:3 bass 
V:4 bass 
V:1
 [Fc] | [Fc]2 [CF] [CF]2 [CG] | [CF]2 [CE] [CE]2 [EB] | [GB]2 [EG] [Fc]2 [GB] | %4
w: 1.~En-|camped a- long the|hills of light, Ye|Christ- ian sol- diers,|
w: 2.~His|ban- ner o- ver|us is love, Our|sword the Word of|
w: 3.~On|ev- ery hand the|foe we find Drawn|up in dread ar-|
w: 4.~To|him that o- ver-|comes the foe, White|rai- ment shall be|
 [FA]3- [FA]2 [Fc] [Fc]2 [CF] [CF]2 [CG] | [CF]2 [CE] [CE]2 [EB] | [EB]2 [EG] [Ec]2 [CE] | %7
w: rise. * And press the bat- tle|ere the night Shall|veil the glow- ing|
w: God. * We tread the road the|saints a- bove With|shouts of tri- umph|
w: ray. * Let tents of ease be|left be- hind, And|on- ward to the|
w: giv’n. * Be- fore the an- gels|he shall know His|name con- fessed in|
 [CF]3- [CF]2 [FA] | [FA]2 [EG] [EG]2 [GB] | [GB]2 [FA] [FA]2 [Fc] | [Ec]2 [EG] [FA]2 [F=B] | %11
w: skies. * A-|gainst the foe in|vales be- low Let|all our strength be|
w: trod. * By|faith, they like a|whirl- wind’s breath, Swept|on o’er ev- ery|
w: fray. * Sal-|va- tion’s hel- met|on each head, With|truth all girt a-|
w: heav’n. * Then|on- ward from the|hill of light, Our|hearts with love a-|
 (E2 F [Gc]2) [GB] | [FA]2 [Fc] [Af]2 [Fc] | [Fe]2 [Fd] [Fd]2 [Fd] | [Fc]2 F [FA]2 [EG] | %15
w: hurled. * * Faith|the vic- to- ry,|we know, That o-|ver- comes the world.|
w: field. * * The|by which they con-|quered death Is still|our shin- ing shield.|
w: bout, * * The|shall trem- ble ’neath|our tread, And e-|cho with our shout.|
w: flame, * * We’ll|quish all the hosts|of night, In Je-|sus’ con- qu’ring name.|
 F3- F2 z ||"^Refrain" c3- [Fc][Fd][FA] | [Ec]2 [EB] [EB]3 | B3- [EB][Ec][EG] | [FB]2 [FA] [FA]3 | %20
w: |||||
w: is *|vic- to- ry! Faith|is the vic-|to- ry! O glor-|i- ous vic-|
w: |||||
w: |||||
 [Fd]3 [Fd][Fe][Ff] | [Af]2 [Ac] [Fc]2 [FB] | [FA]2 [FA] [EB]2 [EG] | F4- F |] %24
w: ||||
w: to- ry, that o-|ver- comes the world.|||
w: ||||
w: ||||
V:2
 x | x6 | x6 | x6 | x12 | x6 | x6 | x6 | x6 | x6 | x6 | c3 x3 | x6 | x6 | x2 F x3 | F3- F2 x || %16
w: |||||||||||is|||||
w: |||||||||||faith|||Faith|the *|
w: |||||||||||earth|||||
w: |||||||||||van-|||||
 x6 | x6 | x6 | x6 | x6 | x6 | x6 | F4- F |] %24
w: ||||||||
w: ||||||||
w: ||||||||
w: ||||||||
V:3
 [F,A,] | [F,A,]2 [F,A,] [F,A,]2 [F,B,] | [C,A,]2 [C,G,] [C,G,]2 [C,G,] | %3
 [C,C]2 [C,B,] [C,A,]2 [C,C] | [F,C]3- [F,C]2 [F,A,] [F,A,]2 [F,A,] [F,A,]2 [F,B,] | %5
 [D,A,]2 [D,G,] [C,G,]2 [C,G,] | [C,C]2 [C,C] [C,C]2 [C,B,] | [F,A,]3- [F,A,]2 [F,C] | %8
 [C,C]2 [C,C] [C,C]2 [C,C] | [F,C]2 [F,C] [F,C]2 [F,A,] | G,2 [G,C] [G,=B,]2 G, | %11
 (C,2 D, [E,C]2) [C,C] | [F,C]2 [F,A,] [F,C]2 [A,,C] | [B,,C]2 [B,,B,] [B,,B,]2 [B,,B,] | %14
 [C,A,]2 [D,A,] [C,C]2 [C,B,] | [F,A,]3- [F,A,]2 z || z2 z [F,A,][F,A,]F, | %17
 [C,G,]2 [C,G,] [C,G,]3 | z2 z [C,G,][C,G,][C,C] | [F,D]2 [F,C] [F,C]3 | %20
 [B,,B,]3 [B,,B,][B,,C][B,,D] | [F,C]2 [F,_E] [B,,D]2 [B,,_D] | [C,C]2 [C,F,] [C,G,]2 [C,B,] | %23
 [F,A,]4- [F,A,] |] %24
V:4
 x | x6 | x6 | x6 | x12 | x6 | x6 | x6 | x6 | x6 | x6 | A,3 x3 | x6 | x6 | x6 | x6 || x6 | x6 | %18
 x6 | x6 | x6 | x6 | x6 | x5 |] %24

